www/assets/icons/manage_search.svg

<svg xmlns="http://www.w3.org/2000/svg" width="24" height="24" viewBox="0 0 24 24" fill='currentColor'><path d="M7 8.5H2v-2h5zm0 3H2v2h5zm13.59 7-3.83-3.83c-.8.52-1.74.83-2.76.83-2.76 0-5-2.24-5-5s2.24-5 5-5 5 2.24 5 5c0 1.02-.31 1.96-.83 2.75L22 17.09zm-3.59-8c0-1.65-1.35-3-3-3s-3 1.35-3 3 1.35 3 3 3 3-1.35 3-3m-15 8h10v-2H2z"/></svg>

<svg width="24" height="24" viewBox="0 0 24 24" xmlns="http://www.w3.org/2000/svg" fill='currentColor'><path d="M7 8.5H2V6.5H7V8.5ZM7 11.5H2V13.5H7V11.5ZM20.59 18.5L16.76 14.67C15.96 15.19 15.02 15.5 14 15.5C11.24 15.5 9 13.26 9 10.5C9 7.74 11.24 5.5 14 5.5C16.76 5.5 19 7.74 19 10.5C19 11.52 18.69 12.46 18.17 13.25L22 17.09L20.59 18.5ZM17 10.5C17 8.85 15.65 7.5 14 7.5C12.35 7.5 11 8.85 11 10.5C11 12.15 12.35 13.5 14 13.5C15.65 13.5 17 12.15 17 10.5ZM2 18.5H12V16.5H2V18.5Z"/></svg>
